X:1
T:Title
%%score { ( 1 3 ) | ( 2 4 ) }
L:1/8
Q:1/4=100
M:4/4
K:D
V:1 treble nm="Grand Piano"
V:3 treble 
V:2 bass 
V:4 bass 
V:1
 [FA]2 [Fd]2 d2 c2 | [Ec]>[CE] [CE]>[DF] [EG]4 | [CE]2 [Ec]2 [Ec]2 [CGB]2 | %3
w: C.~W.~Naylor * * *|||
 [FA]>[GB] [FA]>[EG] [DF]4 | [FA]2 [Fd]2 [Fd]2 F2 | F>E E>E B4 | d4 E2 [CA]2 | F2 D4 z2 | %8
w: |||||
 [Ec]2 [Ec]2 [Ec]3 [CE] | (3[EG][^DF][EG] (3[EG][DF][CEG] [=DGB]2 [DFA]2 | %10
w: ||
 [A,CG]2 [A,EG]2 [CG]3 [CG] | (3[EG][^DF][EG] (3[EG][DF][CEG] [GB]2 [FA]2 | %12
w: ||
 [Fd]>[Fd] [Fd]>[Fd] [Fd]4 | (3FED F>A B4 | (3ddd d>B A>F D>F | [CE]4 z4 |] %16
w: ||||
V:2
 [D,A,]2 [D,A,]2[K:treble] [A,F]2 [A,E]2 | [A,,A,]>[A,,A,] [A,,A,]>[A,,A,] [A,,A,]4 | %2
 [A,,A,]2 [A,,A,]2 [A,,A,]2 A,,2 | [D,D]>[D,D] [D,D]>[D,A,] [D,A,]4 | %4
 [D,A,]2 [D,A,]2 [D,A,]2 [D,A,D]2 | [G,B,D]>[G,B,D] [G,B,D]>[G,B,D] [G,B,D]4 | %6
 [F,A,D]4 [A,C]2 [A,,A,]2 | [D,A,D]2 [D,F,]4 z2 | [A,,A,]2 [A,,A,]2 [A,,A,]3 [A,,A,] | %9
 (3[A,,A,][A,,A,][A,,A,] (3[A,,A,][A,,A,]A,, D,2 D,2 | E,2 C,2 [A,,A,]3 [A,,A,] | %11
 (3[A,,A,][A,,A,][A,,A,] (3[A,,A,][A,,A,]A,, [D,D]2 [D,D]2 | [D,A,]>[D,A,] [D,A,]>[D,A,] [D,A,]4 | %13
 (3[D,A,D][E,A,D][F,A,] [D,A,D]>[F,A,D] [G,D]4 | %14
 (3[F,A,D][F,A,D][F,A,D] [F,A,D]>[K:treble][G,DG] [A,DF]>[K:bass][A,D] [F,A,]>[A,D] | %15
 A,2 z2 [D,F,]2 z2 |] %16
V:3
 x8 | x8 | x8 | x8 | x8 | x8 | x8 | x8 | x8 | x8 | x8 | x8 | x8 | x8 | x8 | z2 G,2 D2 z2 |] %16
V:4
 x4[K:treble] x4 | x8 | x8 | x8 | x8 | x8 | x8 | x8 | x8 | x8 | x8 | x8 | x8 | x8 | %14
 x7/2[K:treble] x2[K:bass] x5/2 | A,,4 z4 |] %16

